sources/design/Outline/വ.svg

<svg:svg xmlns:cc="http://creativecommons.org/ns#" xmlns:dc="http://purl.org/dc/elements/1.1/" xmlns:inkscape="http://www.inkscape.org/namespaces/inkscape" xmlns:rdf="http://www.w3.org/1999/02/22-rdf-syntax-ns#" xmlns:sodipodi="http://sodipodi.sourceforge.net/DTD/sodipodi-0.dtd" xmlns:svg="http://www.w3.org/2000/svg" xml:space="preserve" width="1000" height="1000" version="1.1" style="clip-rule:evenodd;fill-rule:evenodd;image-rendering:optimizeQuality;shape-rendering:geometricPrecision;text-rendering:geometricPrecision" viewBox="0 0 1000 1000" id="svg10" sodipodi:docname="വ.svg" inkscape:version="1.1.1 (3bf5ae0d25, 2021-09-20)"><svg:text text-anchor="middle" x="640.25208" y="804.40594" id="right" inkscape:label="right" style="clip-rule:evenodd;fill-rule:evenodd;image-rendering:optimizeQuality;shape-rendering:geometricPrecision;text-rendering:geometricPrecision">✛</svg:text><svg:text text-anchor="middle" x="575.03638" y="776.38824" id="bottom" inkscape:label="bottom" style="clip-rule:evenodd;fill-rule:evenodd;image-rendering:optimizeQuality;shape-rendering:geometricPrecision;text-rendering:geometricPrecision">✛</svg:text><svg:metadata id="metadata14"><rdf:RDF><cc:Work rdf:about=""><dc:format>image/svg+xml</dc:format><dc:type rdf:resource="http://purl.org/dc/dcmitype/StillImage" /></cc:Work></rdf:RDF></svg:metadata><sodipodi:namedview pagecolor="#ffffff" bordercolor="#666666" borderopacity="1" objecttolerance="10" gridtolerance="10" guidetolerance="10" inkscape:pageopacity="0" inkscape:pageshadow="2" inkscape:window-width="1920" inkscape:window-height="1009" id="namedview12" showgrid="false" inkscape:zoom="1.2005384" inkscape:cx="298.61602" inkscape:cy="592.23428" inkscape:window-x="0" inkscape:window-y="0" inkscape:window-maximized="1" inkscape:current-layer="svg10" showguides="true" inkscape:guide-bbox="true" inkscape:document-rotation="0" inkscape:pagecheckerboard="0"><sodipodi:guide position="0,1000" orientation="0,1" id="guide16" inkscape:label="" inkscape:locked="true" inkscape:color="rgb(0,0,255)" /><sodipodi:guide position="1763.3122,2036.1693" orientation="1000,0" id="guide18" /><sodipodi:guide position="0,200" orientation="0,1" id="guide20" inkscape:label="base" inkscape:locked="true" inkscape:color="rgb(0,0,255)" /><inkscape:grid type="xygrid" id="grid24" originx="-473.37552" originy="-489.69235" /><sodipodi:guide position="0,0" orientation="0,1" id="guide34" inkscape:label="bottom" inkscape:locked="true" inkscape:color="rgb(0,0,255)" /><sodipodi:guide position="225.05109,1693.3186" orientation="0,1" id="guide44" inkscape:label="" inkscape:locked="false" inkscape:color="rgb(0,0,255)" /><sodipodi:guide position="0,900" orientation="0,1" id="guide46" inkscape:label="" inkscape:locked="true" inkscape:color="rgb(0,0,255)" /><sodipodi:guide position="654.00487,774.75758" orientation="1,0" id="guide841" inkscape:label="width" />    </sodipodi:namedview>
 <svg:defs id="defs4"><inkscape:path-effect effect="fillet_chamfer" id="path-effect845" is_visible="true" lpeversion="1" satellites_param="F,0,0,1,0,0,0,1 @ F,0,0,1,0,0,0,1 @ F,0,0,1,0,0,0,1 @ F,0,0,1,0,0,0,1 @ F,0,0,1,0,0,0,1 @ F,0,0,1,0,0,0,1 @ F,0,0,1,0,0,0,1 @ F,0,0,1,0,0,0,1 @ F,0,0,1,0,16.006965,0,1 @ F,0,0,1,0,12.705025,0,1 @ F,0,0,1,0,0,0,1 @ F,0,0,1,0,0,0,1 @ F,0,0,1,0,0,0,1 @ F,0,0,1,0,0,0,1 @ F,0,0,1,0,0,0,1 @ F,0,0,1,0,0,0,1 @ F,0,0,1,0,0,0,1 @ F,0,0,1,0,0,0,1 @ F,0,0,1,0,0,0,1 @ F,0,0,1,0,10.710522,0,1 @ F,0,0,1,0,10.875155,0,1 @ F,0,0,1,0,0,0,1 @ F,0,0,1,0,0,0,1 @ F,0,0,1,0,0,0,1 @ F,0,0,1,0,0,0,1 @ F,0,0,1,0,0,0,1 @ F,0,0,1,0,0,0,1 @ F,0,0,1,0,0,0,1 @ F,0,0,1,0,12.78842,0,1 @ F,0,0,1,0,9.4447629,0,1 @ F,0,0,1,0,0,0,1 @ F,0,0,1,0,0,0,1 @ F,0,0,1,0,0,0,1 @ F,0,0,1,0,0,0,1 @ F,0,0,1,0,0,0,1 @ F,0,0,1,0,0,0,1 @ F,0,0,1,0,0,0,1 @ F,0,0,1,0,0,0,1 @ F,0,0,1,0,0,0,1 @ F,0,0,1,0,0,0,1 @ F,0,0,1,0,0,0,1" unit="px" method="auto" mode="F" radius="0" chamfer_steps="1" flexible="false" use_knot_distance="true" apply_no_radius="true" apply_with_radius="true" only_selected="true" hide_knots="false" /><inkscape:path-effect effect="fillet_chamfer" id="path-effect844" is_visible="true" lpeversion="1" satellites_param="F,0,0,1,0,0,0,1 @ F,0,0,1,0,0,0,1 @ F,0,0,1,0,0,0,1 @ F,0,0,1,0,0,0,1 @ F,0,0,1,0,0,0,1 @ F,0,0,1,0,0,0,1 @ F,0,0,1,0,0,0,1 @ F,0,0,1,0,0,0,1 @ F,0,0,1,0,28.383225,0,1 @ F,0,0,1,0,18.46733,0,1 @ F,0,0,1,0,0,0,1 @ F,0,0,1,0,0,0,1 @ F,0,0,1,0,0,0,1 @ F,0,0,1,0,0,0,1 @ F,0,0,1,0,0,0,1 @ F,0,0,1,0,0,0,1 @ F,0,0,1,0,0,0,1 @ F,0,0,1,0,0,0,1 @ F,0,0,1,0,0,0,1 @ F,0,0,1,0,0,0,1 @ F,0,1,1,0,27.61614,0,1 @ F,0,0,1,0,0,0,1 @ F,0,0,1,0,23.24714,0,1 @ F,0,0,1,0,0,0,1 @ F,0,0,1,0,0,0,1 @ F,0,0,1,0,0,0,1 @ F,0,0,1,0,0,0,1 @ F,0,0,1,0,0,0,1 @ F,0,0,1,0,0,0,1 @ F,0,0,1,0,0,0,1 @ F,0,0,1,0,27.61614,0,1 @ F,0,0,1,0,26.731904,0,1 @ F,0,0,1,0,0,0,1 @ F,0,0,1,0,0,0,1 @ F,0,0,1,0,0,0,1 @ F,0,0,1,0,0,0,1 @ F,0,0,1,0,0,0,1 @ F,0,0,1,0,0,0,1 @ F,0,0,1,0,0,0,1 @ F,0,0,1,0,0,0,1 @ F,0,0,1,0,0,0,1" unit="px" method="auto" mode="F" radius="0" chamfer_steps="1" flexible="false" use_knot_distance="true" apply_no_radius="true" apply_with_radius="true" only_selected="true" hide_knots="false" /><inkscape:path-effect effect="spiro" id="path-effect854" is_visible="true" lpeversion="1" />
  <svg:style type="text/css" id="style2">
   
    .fil0 {fill:#EF7F1A;fill-rule:nonzero}
   
  </svg:style>
 <inkscape:path-effect effect="spiro" id="path-effect1214" is_visible="true" lpeversion="1" /><inkscape:path-effect effect="spiro" id="path-effect1195" is_visible="true" lpeversion="1" /><inkscape:path-effect effect="spiro" id="path-effect992" is_visible="true" lpeversion="1" /><inkscape:path-effect effect="spiro" id="path-effect287" is_visible="true" lpeversion="1" /></svg:defs>
 
<svg:g id="use1029"><svg:path style="color:#000000;clip-rule:nonzero;fill:#1a5fb4;fill-rule:nonzero;stroke-linecap:round;stroke-linejoin:round;-inkscape-stroke:none;paint-order:fill stroke markers;shape-rendering:auto" d="M 489.83789,71.138672 C 471.85447,71.642462 456.20241,83.804508 452.14648,102.70117 C 447.04078,126.48877 445.0261,150.90191000000002 446.17773,175.2168 C 449.25097,240.10325 473.21054,297.15434 488.28711,350.81055000000003 C 504.72917,409.32642000000004 513.57777,470.22489 516.39648,531.5918 C 517.62282,558.29065 517.30895,583.15758 511.41016,604.5625 C 508.47325,615.21963 504.16058000000004,625.03139 498.56836000000004,633.23047 C 493.01461000000006,641.3731399999999 485.99003000000005,648.1177299999999 478.43750000000006,652.5195299999999 C 469.66299000000004,657.6335399999999 458.12708000000003,660.74128 445.39648000000005,661.7792999999999 C 432.5539800000001,662.8264399999999 418.2838300000001,661.8872799999999 402.7851600000001,660.4062499999999 C 400.0236700000001,660.1423699999999 397.2731500000001,659.7746799999999 394.51367000000005,659.4902299999999 C 399.07702000000006,650.6646799999999 403.68633000000005,641.8634299999999 408.05469000000005,632.9394499999999 C 443.86962000000005,559.7743399999998 474.8067500000001,479.42841999999985 477.06641,393.15233999999987 C 478.42425,341.30857 469.00484,287.83222 443.98242,240.1543 C 418.82085,192.21123 377.86406,151.43841 325.63867,131.08203 C 282.76644,114.37132 235.6726,112.78715 192.03711,123.80859 C 148.52968,134.7977 109.32444,157.87715 77.53125,188.07227 C 42.698642,221.15403 16.334227,263.15586 2.75,309.72461 C -13.490591,365.39977 -10.518325,422.00967 -4.8222656,474.43164 C 5.899738,573.10837 26.403568,667.52734 13.951172,756.45117 C 10.561373,780.6580700000001 4.7606211,804.5502700000001 -3.3203125,827.6269500000001 C -6.7884157,837.5308000000001 -8.8459897,854.0982500000001 3.8457030999999997,867.4101600000001 C 16.537396,880.7220600000002 33.858176,879.3713300000002 43.960937,876.0585900000001 L 188.93164,828.52148 C 210.87867999999997,821.32495 223.35466,800.35133 218.48827999999997,777.38477 C 212.77199,750.4071 205.47476999999998,723.76729 196.64061999999998,697.64258 C 170.62270999999998,620.70125 134.55136,552.07417 128.98632999999998,482.77147999999994 C 126.11331999999999,446.99323999999996 131.68502999999998,411.02455999999995 147.84374999999997,382.35546999999997 C 155.90890999999996,368.04612 166.65381999999997,355.44881 179.18749999999997,346.0625 C 191.67030999999997,336.71429 206.31684999999996,330.36131 220.98827999999997,328.1543 C 238.36443999999997,325.54040999999995 257.28348,328.64207999999996 273.53711,336.61328 C 289.85537999999997,344.61618 304.27231,357.78776999999997 314.30273,373.58398 C 332.48103,402.21172 337.24723,441.00910999999996 331.60352,478.66406 C 324.48428,526.16371 301.80064,571.68584 267.23828000000003,603.14258 C 253.08360000000002,616.0253799999999 236.85997000000003,626.75326 219.45117000000005,634.75977 C 200.25940000000006,643.58628 190.09140000000005,664.74261 196.96875000000006,685.7578100000001 L 234.02539000000007,798.99414 C 240.89659000000006,819.99054 267.5430600000001,831.36493 287.1289100000001,823.43945 C 303.26542000000006,816.90976 320.55975000000007,813.04464 337.9121100000001,812.10937 C 368.3446400000001,810.4691 402.1635000000001,818.13595 439.78516000000013,823.62891 C 477.7057100000001,829.1655000000001 521.5125200000001,832.0992600000001 563.1875000000001,813.6953100000001 C 599.1979000000001,797.7928800000001 626.0966200000001,768.63053 643.0566400000001,735.8203100000001 C 659.8749500000001,703.28425 666.9520200000002,667.9679600000001 668.9960900000001,633.9433600000001 C 674.5505800000001,541.4864300000002 645.23332,456.4325100000001 631.24219,375.8984400000001 C 623.08024,328.9176200000001 619.6489300000001,282.0251700000001 626.7246100000001,237.7519500000001 C 631.6513100000001,206.9251400000001 641.77263,176.8356300000001 656.46094,149.26562000000013 C 661.54966,139.71407000000013 663.56146,125.88537000000012 657.6933600000001,113.66797000000012 C 651.8252600000001,101.45056000000012 639.2273700000001,94.10082900000012 628.29492,92.36718700000013 L 497.66211,71.652344 C 495.0249,71.234141 492.40695,71.06670199999999 489.83788999999996,71.138672 L 489.83789,71.138672 M 507.72852,133.99805 L 590.97852,147.19922 C 579.86411,173.12243999999998 571.93382,200.39177999999998 567.47656,228.28125 C 558.8997499999999,281.94716 563.3123599999999,335.43241 572.12695,386.16992 C 587.19506,472.90317 613.7319699999999,553.3353999999999 609.10547,630.3457 C 607.41602,658.4673799999999 601.52612,685.49923 589.75586,708.2695299999999 C 578.1273199999999,730.76568 559.89298,749.5605499999999 538.9511699999999,758.8085899999999 C 514.34335,769.6755699999999 482.2306299999999,769.1894999999998 448.4531199999999,764.2578099999998 C 416.41273999999987,759.5797499999999 381.0550999999999,751.1629399999998 342.1035199999999,752.0371099999999 C 349.4042399999999,740.2771999999999 356.4902099999999,728.3857599999999 363.4277299999999,716.4081999999999 C 374.6264899999999,717.8040199999998 385.8415599999999,719.0611999999999 397.0761699999999,720.1347699999999 C 413.4252899999999,721.6970599999999 431.22888999999986,723.1348699999999 450.2734399999999,721.5820299999999 C 469.4298899999999,720.0200699999999 489.7840199999999,715.35322 508.6503899999999,704.3574199999999 C 524.96976,694.8460899999999 538.11957,681.7209799999999 548.1347699999999,667.03711 C 558.1114899999999,652.4096499999999 564.8500199999999,636.48231 569.2539099999999,620.50195 C 578.0366899999999,588.6319 577.6412699999998,557.34178 576.3320299999999,528.83789 C 573.3329899999999,463.54492000000005 563.9074599999999,398.13046 546.0507799999999,334.58008 C 529.6966499999999,276.37711 508.5331699999999,223.55342000000002 506.1093699999999,172.37891000000002 C 505.5033299999999,159.58316000000002 506.1163699999999,146.7247 507.7285199999999,133.99805000000003 L 507.72852,133.99805 M 243.70703000000003,176.89844 C 264.42391000000003,176.36061999999998 285.07201000000003,179.66720999999998 303.84961000000004,186.98632999999998 C 340.42452000000003,201.24247999999997 371.72666000000004,231.58892999999998 390.85547,268.03711 C 410.12343000000004,304.75043999999997 418.22539,348.15097 417.08789,391.58203 C 415.18244000000004,464.33423 388.29329,536.84114 354.16602,606.55859 C 346.81088,621.58416 339.07416,636.4202 331.14258,651.15039 C 323.40989,649.9037500000001 315.69108,648.57857 307.98633,647.16992 C 353.77236,605.3251700000001 381.93722,547.63266 390.94141,487.55664 C 398.16650000000004,439.35075 393.31651,386.08438 364.95508,341.41992000000005 C 349.18235,316.5805500000001 326.855,295.93461 299.95508,282.74219000000005 C 272.99051000000003,269.5180700000001 242.28657,264.27372 212.0625,268.82031000000006 C 186.68856,272.63730000000004 163.1539,283.10891000000004 143.22266000000002,298.0351600000001 C 123.34228000000002,312.9233000000001 107.39288000000002,331.92564000000004 95.57421900000003,352.8945300000001 C 71.96529900000003,394.7819100000001 65.56793200000003,442.6204800000001 69.17773400000003,487.5742200000001 C 76.06776200000003,573.3773900000001 115.97314000000003,646.39913 139.80078000000003,716.86328 C 146.36493000000004,736.27507 151.95405000000002,756.01494 156.64258000000004,775.96484 L 65.55078100000004,805.83398 C 68.81246400000005,792.28464 71.43745800000005,778.57978 73.37109400000004,764.77148 C 87.81800600000004,661.60461 65.05666400000004,562.10247 54.82617200000004,467.94921999999997 C 49.41603500000004,418.15864999999997 47.79896300000004,369.55282 60.349609000000044,326.52734 C 70.78203000000005,290.76346 91.49516100000004,257.55760999999995 118.84961000000004,231.57811999999998 C 143.80211000000003,207.87984999999998 174.36119000000005,190.1563 206.73047000000003,181.98046999999997 C 218.82093000000003,178.92665999999997 231.27691000000002,177.22112999999996 243.70703000000003,176.89843999999997 L 243.70703000000003,176.89844" id="path10010" /></svg:g></svg:svg>

<svg:svg xmlns:cc="http://creativecommons.org/ns#" xmlns:dc="http://purl.org/dc/elements/1.1/" xmlns:inkscape="http://www.inkscape.org/namespaces/inkscape" xmlns:rdf="http://www.w3.org/1999/02/22-rdf-syntax-ns#" xmlns:sodipodi="http://sodipodi.sourceforge.net/DTD/sodipodi-0.dtd" xmlns:svg="http://www.w3.org/2000/svg" xml:space="preserve" width="1000" height="1000" version="1.1" style="clip-rule:evenodd;fill-rule:evenodd;image-rendering:optimizeQuality;shape-rendering:geometricPrecision;text-rendering:geometricPrecision" viewBox="0 0 1000 1000" id="svg10" sodipodi:docname="വ.svg" inkscape:version="1.1.1 (3bf5ae0d25, 2021-09-20)"><svg:text text-anchor="middle" x="640.25208" y="804.40594" id="right" inkscape:label="right" style="clip-rule:evenodd;fill-rule:evenodd;image-rendering:optimizeQuality;shape-rendering:geometricPrecision;text-rendering:geometricPrecision">✛</svg:text><svg:text text-anchor="middle" x="575.03638" y="776.38824" id="bottom" inkscape:label="bottom" style="clip-rule:evenodd;fill-rule:evenodd;image-rendering:optimizeQuality;shape-rendering:geometricPrecision;text-rendering:geometricPrecision">✛</svg:text><svg:metadata id="metadata14"><rdf:RDF><cc:Work rdf:about=""><dc:format>image/svg+xml</dc:format><dc:type rdf:resource="http://purl.org/dc/dcmitype/StillImage" /></cc:Work></rdf:RDF></svg:metadata><sodipodi:namedview pagecolor="#ffffff" bordercolor="#666666" borderopacity="1" objecttolerance="10" gridtolerance="10" guidetolerance="10" inkscape:pageopacity="0" inkscape:pageshadow="2" inkscape:window-width="1920" inkscape:window-height="1009" id="namedview12" showgrid="false" inkscape:zoom="1.2005384" inkscape:cx="298.61602" inkscape:cy="592.23428" inkscape:window-x="0" inkscape:window-y="0" inkscape:window-maximized="1" inkscape:current-layer="svg10" showguides="true" inkscape:guide-bbox="true" inkscape:document-rotation="0" inkscape:pagecheckerboard="0"><sodipodi:guide position="0,1000" orientation="0,1" id="guide16" inkscape:label="" inkscape:locked="true" inkscape:color="rgb(0,0,255)" /><sodipodi:guide position="1763.3122,2036.1693" orientation="1000,0" id="guide18" /><sodipodi:guide position="0,200" orientation="0,1" id="guide20" inkscape:label="base" inkscape:locked="true" inkscape:color="rgb(0,0,255)" /><inkscape:grid type="xygrid" id="grid24" originx="-473.37552" originy="-489.69235" /><sodipodi:guide position="0,0" orientation="0,1" id="guide34" inkscape:label="bottom" inkscape:locked="true" inkscape:color="rgb(0,0,255)" /><sodipodi:guide position="225.05109,1693.3186" orientation="0,1" id="guide44" inkscape:label="" inkscape:locked="false" inkscape:color="rgb(0,0,255)" /><sodipodi:guide position="0,900" orientation="0,1" id="guide46" inkscape:label="" inkscape:locked="true" inkscape:color="rgb(0,0,255)" /><sodipodi:guide position="654.00487,774.75758" orientation="1,0" id="guide841" inkscape:label="width" />    </sodipodi:namedview>
 <svg:defs id="defs4"><inkscape:path-effect effect="fillet_chamfer" id="path-effect845" is_visible="true" lpeversion="1" satellites_param="F,0,0,1,0,0,0,1 @ F,0,0,1,0,0,0,1 @ F,0,0,1,0,0,0,1 @ F,0,0,1,0,0,0,1 @ F,0,0,1,0,0,0,1 @ F,0,0,1,0,0,0,1 @ F,0,0,1,0,0,0,1 @ F,0,0,1,0,0,0,1 @ F,0,0,1,0,16.006965,0,1 @ F,0,0,1,0,12.705025,0,1 @ F,0,0,1,0,0,0,1 @ F,0,0,1,0,0,0,1 @ F,0,0,1,0,0,0,1 @ F,0,0,1,0,0,0,1 @ F,0,0,1,0,0,0,1 @ F,0,0,1,0,0,0,1 @ F,0,0,1,0,0,0,1 @ F,0,0,1,0,0,0,1 @ F,0,0,1,0,0,0,1 @ F,0,0,1,0,10.710522,0,1 @ F,0,0,1,0,10.875155,0,1 @ F,0,0,1,0,0,0,1 @ F,0,0,1,0,0,0,1 @ F,0,0,1,0,0,0,1 @ F,0,0,1,0,0,0,1 @ F,0,0,1,0,0,0,1 @ F,0,0,1,0,0,0,1 @ F,0,0,1,0,0,0,1 @ F,0,0,1,0,12.78842,0,1 @ F,0,0,1,0,9.4447629,0,1 @ F,0,0,1,0,0,0,1 @ F,0,0,1,0,0,0,1 @ F,0,0,1,0,0,0,1 @ F,0,0,1,0,0,0,1 @ F,0,0,1,0,0,0,1 @ F,0,0,1,0,0,0,1 @ F,0,0,1,0,0,0,1 @ F,0,0,1,0,0,0,1 @ F,0,0,1,0,0,0,1 @ F,0,0,1,0,0,0,1 @ F,0,0,1,0,0,0,1" unit="px" method="auto" mode="F" radius="0" chamfer_steps="1" flexible="false" use_knot_distance="true" apply_no_radius="true" apply_with_radius="true" only_selected="true" hide_knots="false" /><inkscape:path-effect effect="fillet_chamfer" id="path-effect844" is_visible="true" lpeversion="1" satellites_param="F,0,0,1,0,0,0,1 @ F,0,0,1,0,0,0,1 @ F,0,0,1,0,0,0,1 @ F,0,0,1,0,0,0,1 @ F,0,0,1,0,0,0,1 @ F,0,0,1,0,0,0,1 @ F,0,0,1,0,0,0,1 @ F,0,0,1,0,0,0,1 @ F,0,0,1,0,28.383225,0,1 @ F,0,0,1,0,18.46733,0,1 @ F,0,0,1,0,0,0,1 @ F,0,0,1,0,0,0,1 @ F,0,0,1,0,0,0,1 @ F,0,0,1,0,0,0,1 @ F,0,0,1,0,0,0,1 @ F,0,0,1,0,0,0,1 @ F,0,0,1,0,0,0,1 @ F,0,0,1,0,0,0,1 @ F,0,0,1,0,0,0,1 @ F,0,0,1,0,0,0,1 @ F,0,1,1,0,27.61614,0,1 @ F,0,0,1,0,0,0,1 @ F,0,0,1,0,23.24714,0,1 @ F,0,0,1,0,0,0,1 @ F,0,0,1,0,0,0,1 @ F,0,0,1,0,0,0,1 @ F,0,0,1,0,0,0,1 @ F,0,0,1,0,0,0,1 @ F,0,0,1,0,0,0,1 @ F,0,0,1,0,0,0,1 @ F,0,0,1,0,27.61614,0,1 @ F,0,0,1,0,26.731904,0,1 @ F,0,0,1,0,0,0,1 @ F,0,0,1,0,0,0,1 @ F,0,0,1,0,0,0,1 @ F,0,0,1,0,0,0,1 @ F,0,0,1,0,0,0,1 @ F,0,0,1,0,0,0,1 @ F,0,0,1,0,0,0,1 @ F,0,0,1,0,0,0,1 @ F,0,0,1,0,0,0,1" unit="px" method="auto" mode="F" radius="0" chamfer_steps="1" flexible="false" use_knot_distance="true" apply_no_radius="true" apply_with_radius="true" only_selected="true" hide_knots="false" /><inkscape:path-effect effect="spiro" id="path-effect854" is_visible="true" lpeversion="1" />
  <svg:style type="text/css" id="style2">
   
    .fil0 {fill:#EF7F1A;fill-rule:nonzero}
   
  </svg:style>
 <inkscape:path-effect effect="spiro" id="path-effect1214" is_visible="true" lpeversion="1" /><inkscape:path-effect effect="spiro" id="path-effect1195" is_visible="true" lpeversion="1" /><inkscape:path-effect effect="spiro" id="path-effect992" is_visible="true" lpeversion="1" /><inkscape:path-effect effect="spiro" id="path-effect287" is_visible="true" lpeversion="1" /></svg:defs>
 
<svg:g id="use1029"><svg:path style="color:#000000;clip-rule:nonzero;fill:#1a5fb4;fill-rule:nonzero;stroke-linecap:round;stroke-linejoin:round;-inkscape-stroke:none;shape-rendering:auto" d="m 489.83789,71.138672 c -17.98342,0.50379 -33.63548,12.665836 -37.69141,31.562498 -5.1057,23.7876 -7.12038,48.20074 -5.96875,72.51563 3.07324,64.88645 27.03281,121.93754 42.10938,175.59375 16.44206,58.51587 25.29066,119.41434 28.10937,180.78125 1.22634,26.69885 0.91247,51.56578 -4.98632,72.9707 -2.93691,10.65713 -7.24958,20.46889 -12.8418,28.66797 -5.55375,8.14267 -12.57833,14.88726 -20.13086,19.28906 -8.77451,5.11401 -20.31042,8.22175 -33.04102,9.25977 -12.8425,1.04714 -27.11265,0.10798 -42.61132,-1.37305 -2.76149,-0.26388 -5.51201,-0.63157 -8.27149,-0.91602 4.56335,-8.82555 9.17266,-17.6268 13.54102,-26.55078 35.81493,-73.16511 66.75206,-153.51103 69.01172,-239.78711 C 478.42425,341.30857 469.00484,287.83222 443.98242,240.1543 418.82085,192.21123 377.86406,151.43841 325.63867,131.08203 282.76644,114.37132 235.6726,112.78715 192.03711,123.80859 148.52968,134.7977 109.32444,157.87715 77.53125,188.07227 42.698642,221.15403 16.334227,263.15586 2.75,309.72461 -13.490591,365.39977 -10.518325,422.00967 -4.8222656,474.43164 5.899738,573.10837 26.403568,667.52734 13.951172,756.45117 c -3.389799,24.2069 -9.1905509,48.0991 -17.2714845,71.17578 -3.4681032,9.90385 -5.5256772,26.4713 7.1660156,39.78321 12.6916929,13.3119 30.0124729,11.96117 40.1152339,8.64843 L 188.93164,828.52148 c 21.94704,-7.19653 34.42302,-28.17015 29.55664,-51.13671 -5.71629,-26.97767 -13.01351,-53.61748 -21.84766,-79.74219 -26.01791,-76.94133 -62.08926,-145.56841 -67.65429,-214.8711 -2.87301,-35.77824 2.6987,-71.74692 18.85742,-100.41601 8.06516,-14.30935 18.81007,-26.90666 31.34375,-36.29297 12.48281,-9.34821 27.12935,-15.70119 41.80078,-17.9082 17.37616,-2.61389 36.2952,0.48778 52.54883,8.45898 16.31827,8.0029 30.7352,21.17449 40.76562,36.9707 18.1783,28.62774 22.9445,67.42513 17.30079,105.08008 -7.11924,47.49965 -29.80288,93.02178 -64.36524,124.47852 -14.15468,12.8828 -30.37831,23.61068 -47.78711,31.61719 -19.19177,8.82651 -29.35977,29.98284 -22.48242,50.99804 l 37.05664,113.23633 c 6.8712,20.9964 33.51767,32.37079 53.10352,24.44531 16.13651,-6.52969 33.43084,-10.39481 50.7832,-11.33008 30.43253,-1.64027 64.25139,6.02658 101.87305,11.51954 37.92055,5.53659 81.72736,8.47035 123.40234,-9.9336 36.0104,-15.90243 62.90912,-45.06478 79.86914,-77.875 16.81831,-32.53606 23.89538,-67.85235 25.93945,-101.87695 5.55449,-92.45693 -23.76277,-177.51085 -37.7539,-258.04492 -8.16195,-46.98082 -11.59326,-93.87327 -4.51758,-138.14649 4.9267,-30.82681 15.04802,-60.91632 29.73633,-88.48633 5.08872,-9.55155 7.10052,-23.38025 1.23242,-35.59765 -5.8681,-12.21741 -18.46599,-19.567141 -29.39844,-21.300783 L 497.66211,71.652344 c -2.63721,-0.418203 -5.25516,-0.585642 -7.82422,-0.513672 z m 17.89063,62.859378 83.25,13.20117 c -11.11441,25.92322 -19.0447,53.19256 -23.50196,81.08203 -8.57681,53.66591 -4.1642,107.15116 4.65039,157.88867 15.06811,86.73325 41.60502,167.16548 36.97852,244.17578 -1.68945,28.12168 -7.57935,55.15353 -19.34961,77.92383 -11.62854,22.49615 -29.86288,41.29102 -50.80469,50.53906 -24.60782,10.86698 -56.72054,10.38091 -90.49805,5.44922 -32.04038,-4.67806 -67.39802,-13.09487 -106.3496,-12.2207 7.30072,-11.75991 14.38669,-23.65135 21.32421,-35.62891 11.19876,1.39582 22.41383,2.653 33.64844,3.72657 16.34912,1.56229 34.15272,3.0001 53.19727,1.44726 19.15645,-1.56196 39.51058,-6.22881 58.37695,-17.22461 16.31937,-9.51133 29.46918,-22.63644 39.48438,-37.32031 9.97672,-14.62746 16.71525,-30.5548 21.11914,-46.53516 8.78278,-31.87005 8.38736,-63.16017 7.07812,-91.66406 -2.99904,-65.29297 -12.42457,-130.70743 -30.28125,-194.25781 -16.35413,-58.20297 -37.51761,-111.02666 -39.94141,-162.20117 -0.60604,-12.79575 0.007,-25.65421 1.61915,-38.38086 z m -264.02149,42.90039 c 20.71688,-0.53782 41.36498,2.76877 60.14258,10.08789 36.57491,14.25615 67.87705,44.6026 87.00586,81.05078 19.26796,36.71333 27.36992,80.11386 26.23242,123.54492 -1.90545,72.7522 -28.7946,145.25911 -62.92187,214.97656 -7.35514,15.02557 -15.09186,29.86161 -23.02344,44.5918 -7.73269,-1.24664 -15.4515,-2.57182 -23.15625,-3.98047 45.78603,-41.84475 73.95089,-99.53726 82.95508,-159.61328 7.22509,-48.20589 2.3751,-101.47226 -25.98633,-146.13672 -15.77273,-24.83937 -38.10008,-45.48531 -65,-58.67773 -26.96457,-13.22412 -57.66851,-18.46847 -87.89258,-13.92188 -25.37394,3.81699 -48.9086,14.2886 -68.83984,29.21485 -19.88038,14.88814 -35.82978,33.89048 -47.648441,54.85937 -23.60892,41.88738 -30.006287,89.72595 -26.396485,134.67969 6.890028,85.80317 46.795406,158.82491 70.623046,229.28906 6.56415,19.41179 12.15327,39.15166 16.8418,59.10156 l -91.091799,29.86914 c 3.261683,-13.54934 5.886677,-27.2542 7.820313,-41.0625 14.446912,-103.16687 -8.31443,-202.66901 -18.544922,-296.82226 -5.410137,-49.79057 -7.027209,-98.3964 5.523437,-141.42188 10.432421,-35.76388 31.145552,-68.96973 58.500001,-94.94922 24.9525,-23.69827 55.51158,-41.42182 87.88086,-49.59765 12.09046,-3.05381 24.54644,-4.75934 36.97656,-5.08203 z" id="path9992" /></svg:g></svg:svg>
